images/ic_map_pin.svg

<svg width="53" height="53" viewBox="0 0 53 53" fill="none" xmlns="http://www.w3.org/2000/svg">
<circle cx="26.5" cy="51.5" r="1.5" fill="#1A1A1A"/>
<line x1="26.5" y1="37" x2="26.5" y2="51" stroke="#1A1A1A"/>
<g filter="url(#filter0_d)">
<circle cx="26.5" cy="24.5" r="16.5" fill="#1B76BC"/>
</g>
<path d="M29.5127 26.8725C29.6218 27.045 29.8116 27.1497 30.0158 27.1497H30.2435C30.4477 27.1497 30.6376 27.045 30.7466 26.8725C31.1526 26.2303 31.6671 25.6668 32.1646 25.1219C33.1823 24.0074 34.2347 22.855 34.2364 21.102C34.2338 18.8401 32.3915 17 30.1297 17C27.8678 17 26.0256 18.8401 26.0229 21.1032C26.0246 22.855 27.077 24.0074 28.0947 25.1219C28.5922 25.6668 29.1067 26.2303 29.5127 26.8725ZM30.1297 18.1904C31.7359 18.1904 33.0442 19.4971 33.046 21.1021C33.0448 22.3928 32.2296 23.2856 31.2857 24.3193C30.8961 24.7458 30.4969 25.183 30.1297 25.6733C29.7624 25.1831 29.3632 24.7458 28.9737 24.3193C28.0298 23.2856 27.2146 22.3928 27.2133 21.1033C27.2151 19.4971 28.5234 18.1904 30.1297 18.1904Z" fill="white"/>
<path d="M30.6953 22.3528C30.6953 22.0241 30.4288 21.7576 30.1001 21.7576C29.7719 21.7576 29.5049 21.4906 29.5049 21.1624C29.5049 20.8342 29.7719 20.5673 30.1001 20.5673C30.4283 20.5673 30.6953 20.8342 30.6953 21.1624C30.6953 21.4911 30.9617 21.7576 31.2905 21.7576C31.6192 21.7576 31.8856 21.4911 31.8856 21.1624C31.8856 20.1779 31.0847 19.3769 30.1001 19.3769C29.1156 19.3769 28.3146 20.1779 28.3146 21.1624C28.3146 22.147 29.1156 22.948 30.1001 22.948C30.4288 22.948 30.6953 22.6815 30.6953 22.3528Z" fill="white"/>
<path d="M33.6414 25.4837C33.3126 25.4837 33.0462 25.7502 33.0462 26.0789V30.4375C33.0462 30.6422 32.9485 30.8265 32.7782 30.943C32.6145 31.055 32.4166 31.0789 32.2355 31.0085C32.2259 31.0048 32.2161 31.0013 32.2063 30.998L29.9607 30.2574C29.329 30.0241 28.6509 29.9901 27.9988 30.1594L24.8828 30.9679C24.4781 31.073 24.0497 31.0752 23.6438 30.9744L21.0938 30.3409C20.5619 30.2088 20.1904 29.7337 20.1904 29.1857V18.788C20.1904 18.5878 20.2853 18.4084 20.4508 18.2959C20.6163 18.1833 20.818 18.1609 21.0042 18.2344C21.0135 18.2381 21.0228 18.2415 21.0322 18.2447L23.2543 18.9955C23.8221 19.2107 24.4372 19.2641 25.0338 19.1499C25.3567 19.0881 25.5684 18.7763 25.5066 18.4535C25.4448 18.1307 25.1329 17.9189 24.8102 17.9808C24.4273 18.054 24.0325 18.019 23.6684 17.8795C23.661 17.8766 23.6535 17.8739 23.646 17.8714L21.426 17.1213C20.8796 16.9112 20.266 16.9819 19.7813 17.3116C19.2921 17.6444 19 18.1963 19 18.788V29.1857C19 30.2818 19.7429 31.2319 20.8068 31.4962L23.3568 32.1296C23.6494 32.2023 23.9499 32.2386 24.2505 32.2386C24.564 32.2386 24.8775 32.1991 25.1818 32.1201L28.2977 31.3116C28.716 31.2031 29.1508 31.2256 29.5555 31.3768C29.5628 31.3795 29.5701 31.3821 29.5774 31.3845L31.8203 32.1242C32.3613 32.3283 32.9694 32.2546 33.4504 31.9254C33.9426 31.5885 34.2365 31.0323 34.2365 30.4375V26.0789C34.2365 25.7502 33.9701 25.4837 33.6414 25.4837Z" fill="white"/>
<path d="M24.2673 22.4775C23.9385 22.4775 23.6721 22.7439 23.6721 23.0727C23.6721 23.4013 23.9385 23.6679 24.2673 23.6679C24.5961 23.6679 24.8625 23.4013 24.8625 23.0727C24.8625 22.7439 24.5961 22.4775 24.2673 22.4775Z" fill="white"/>
<path d="M24.2673 24.6202C23.9385 24.6202 23.6721 24.8865 23.6721 25.2154C23.6721 25.5442 23.9385 25.8105 24.2673 25.8105C24.5961 25.8105 24.8625 25.5442 24.8625 25.2154C24.8625 24.8865 24.5961 24.6202 24.2673 24.6202Z" fill="white"/>
<path d="M24.2673 26.7628C23.9385 26.7628 23.6721 27.0292 23.6721 27.358C23.6721 27.6868 23.9385 27.9532 24.2673 27.9532C24.5961 27.9532 24.8625 27.6868 24.8625 27.358C24.8625 27.0292 24.5961 26.7628 24.2673 26.7628Z" fill="white"/>
<path d="M24.2673 20.335C23.9385 20.335 23.6721 20.6013 23.6721 20.9301C23.6721 21.2587 23.9385 21.5253 24.2673 21.5253C24.5961 21.5253 24.8625 21.2587 24.8625 20.9301C24.8625 20.6013 24.5961 20.335 24.2673 20.335Z" fill="white"/>
<path d="M24.2673 28.9055C23.9385 28.9055 23.6721 29.1718 23.6721 29.5006C23.6721 29.8292 23.9385 30.0958 24.2673 30.0958C24.5961 30.0958 24.8625 29.8292 24.8625 29.5006C24.8625 29.1718 24.5961 28.9055 24.2673 28.9055Z" fill="white"/>
<defs>
<filter id="filter0_d" x="0" y="0" width="53" height="53" filterUnits="userSpaceOnUse" color-interpolation-filters="sRGB">
<feFlood flood-opacity="0" result="BackgroundImageFix"/>
<feColorMatrix in="SourceAlpha" type="matrix" values="0 0 0 0 0 0 0 0 0 0 0 0 0 0 0 0 0 0 127 0"/>
<feOffset dy="2"/>
<feGaussianBlur stdDeviation="5"/>
<feColorMatrix type="matrix" values="0 0 0 0 0 0 0 0 0 0 0 0 0 0 0 0 0 0 0.1 0"/>
<feBlend mode="normal" in2="BackgroundImageFix" result="effect1_dropShadow"/>
<feBlend mode="normal" in="SourceGraphic" in2="effect1_dropShadow" result="shape"/>
</filter>
</defs>
</svg>

<svg xmlns="http://www.w3.org/2000/svg" xmlns:xlink="http://www.w3.org/1999/xlink" fill="none" viewBox="0 0 53 53"><circle cx="26.5" cy="51.5" r="1.5" fill="#1a1a1a"/><path stroke="#1a1a1a" d="M26.5 37v14"/><g filter="url(#A)"><circle cx="26.5" cy="24.5" r="16.5" fill="#1b76bc"/></g><g fill="#fff"><path d="M29.513 26.872a.6.6 0 0 0 .503.277h.228c.204 0 .394-.105.503-.277.406-.642.92-1.206 1.418-1.75 1.018-1.114 2.07-2.267 2.072-4.02C34.234 18.84 32.392 17 30.13 17s-4.104 1.84-4.107 4.103c.002 1.752 1.054 2.904 2.072 4.02.498.545 1.012 1.108 1.418 1.75zm.617-8.682a2.92 2.92 0 0 1 2.916 2.912c-.001 1.3-.816 2.183-1.76 3.217l-1.156 1.354c-.367-.5-.767-.927-1.156-1.354-.944-1.034-1.76-1.927-1.76-3.216a2.92 2.92 0 0 1 2.916-2.913zm.565 4.163c0-.33-.267-.595-.595-.595s-.595-.267-.595-.595.267-.595.595-.595.595.267.595.595.266.595.595.595.595-.267.595-.595a1.79 1.79 0 0 0-1.786-1.786 1.79 1.79 0 0 0-1.785 1.786 1.79 1.79 0 0 0 1.785 1.786c.33 0 .595-.267.595-.595zm2.945 3.13c-.33 0-.595.266-.595.595v4.36c0 .205-.098.4-.268.506a.58.58 0 0 1-.543.066l-.03-.01-2.246-.74c-.632-.233-1.3-.267-1.962-.098l-3.116.808c-.405.105-.833.107-1.24.006l-2.55-.633a1.19 1.19 0 0 1-.903-1.155v-10.4c0-.2.095-.38.26-.492s.367-.135.553-.06l.028.01 2.222.75a3.28 3.28 0 0 0 1.779.154c.323-.062.535-.374.473-.696s-.374-.535-.696-.473a2.09 2.09 0 0 1-1.142-.101l-.022-.008-2.22-.75c-.546-.2-1.16-.14-1.645.2s-.78.885-.78 1.476v10.398c0 1.096.743 2.046 1.807 2.3l2.55.633a3.71 3.71 0 0 0 1.825-.01l3.116-.808a2.08 2.08 0 0 1 1.258.065l.022.008 2.243.74c.54.204 1.15.13 1.63-.2.492-.337.786-.893.786-1.488v-4.36c0-.33-.266-.595-.595-.595z"/><use xlink:href="#B"/><use xlink:href="#C"/><use xlink:href="#C" y="2.143"/><use xlink:href="#B" y="-2.143"/><use xlink:href="#B" y="6.428"/></g><defs><filter id="A" x="0" y="0" width="53" height="53" color-interpolation-filters="sRGB" filterUnits="userSpaceOnUse"><feFlood flood-opacity="0" result="A"/><feColorMatrix in="SourceAlpha" values="0 0 0 0 0 0 0 0 0 0 0 0 0 0 0 0 0 0 127 0"/><feOffset dy="2"/><feGaussianBlur stdDeviation="5"/><feColorMatrix values="0 0 0 0 0 0 0 0 0 0 0 0 0 0 0 0 0 0 0.1 0"/><feBlend in2="A"/><feBlend in="SourceGraphic"/></filter><path id="B" d="M24.267 22.478c-.33 0-.595.266-.595.595s.266.595.595.595.595-.267.595-.595-.266-.595-.595-.595z"/><path id="C" d="M24.267 24.62c-.33 0-.595.266-.595.595s.266.595.595.595.595-.266.595-.595-.266-.595-.595-.595z"/></defs></svg>
